X:297
T:Farewell,The. RH.297
R:jig
S:Rev.R.Harrison’s MS,c1815,Cumbria
O:England
A:Temple Sowerby,Cumbria
Z:vmp.Simon Wilson. Review PJH, 2008.
M:6/8
L:1/8
Q:3/8=120
K:D
d2A EAE|D2A EAE|d2A (E/G/A)E|BGE E3|\
d2A FAF|D2A FAF|(B/c/d)B cec|dAF D3:|!
|:ded faf|ece g2e|dfd faf|ecA A3|\
dfd faf|ece gfg|agf edc|dAF D3:|

